src/lib/packages/icons/src/assets/filled/vk.svg

<svg xmlns="http://www.w3.org/2000/svg" width="24" height="24" fill="none"><path fill="currentColor" d="M21 18h-3.19c-.69-2.13-2.39-3.79-4.65-4.01V18h-.36C6.72 18 3.2 13.88 3 7h3.09c.16 4.98 2.39 7.11 4.16 7.55V7h2.9v4.21c1.71-.18 3.51-2.07 4.2-4.21h2.92a8.647 8.647 0 0 1-3.89 5.37A8.868 8.868 0 0 1 20.99 18H21Z"/></svg>

<svg width="24" height="24" viewBox="0 0 24 24" fill="none" xmlns="http://www.w3.org/2000/svg">
<path d="M21 18H17.81C17.12 15.87 15.42 14.21 13.16 13.99V18H12.8C6.72 18 3.2 13.88 3 7H6.09C6.25 11.98 8.48 14.11 10.25 14.55V7H13.15V11.21C14.86 11.03 16.66 9.14 17.35 7H20.27C19.74 9.23 18.34 11.17 16.38 12.37C18.65 13.5 20.33 15.55 20.99 18H21Z" fill="currentColor"/>
</svg>
